assets/img/braze_icons/piggy-bank-02.svg

<svg fill="none" height="24" viewBox="0 0 24 24" width="24" xmlns="http://www.w3.org/2000/svg"><path d="m11.5 2c-2.48528 0-4.5 2.01472-4.5 4.5 0 .2431.01937.48213.05672.7155-1.58481 1.08243-2.70197 2.7992-2.98592 4.7847h-.0708c-.55228 0-1-.4477-1-1 0-.3689.19922-.6924.50073-.8668.47806-.27659.64142-.88832.36488-1.36638-.27655-.47806-.88828-.64142-1.36634-.36488-.89409.5172-1.49927 1.48636-1.49927 2.59806 0 1.6568 1.34315 3 3 3h.07094c.21598 1.5081.91295 2.8619 1.929 3.8988l-.00001 2.3241c-.00004.1192-.0001.2614.01014.3867.01187.1452.04231.3532.15336.5712.14381.2822.37328.5117.65552.6555.21795.1111.42594.1415.57116.1534.12531.0102.26757.0102.38668.0101h1.9463c.11911.0001.26137.0001.38671-.0101.1452-.0119.3532-.0423.5711-.1534.2823-.1438.5117-.3733.6555-.6555.1111-.218.1415-.426.1534-.5712.0102-.1253.0102-.2675.0101-.3867v-.2231h1.0001l-.0001.223c0 .1191-.0001.2614.0102.3867.0118.1452.0423.3532.1533.5712.1439.2822.3733.5117.6556.6555.2179.111.4259.1415.5711.1533.1253.0103.2676.0102.3867.0102h1.9465c.1191 0 .2613.0001.3866-.0102.1452-.0118.3532-.0423.5711-.1533.2822-.1438.5117-.3733.6555-.6555.1111-.218.1415-.426.1534-.5712.0102-.1253.0102-.2676.0101-.3867v-.897c1.1062-.5254 2.0517-1.3316 2.7452-2.3261h.478c.1191 0 .2613.0001.3867-.0102.1452-.0118.3532-.0423.5711-.1533.2823-.1438.5117-.3733.6555-.6555.1111-.218.1415-.426.1534-.5712.0102-.1253.0102-.2676.0101-.3867v-3.4594c.0001-.1134.0001-.2489-.0092-.3684-.0107-.1382-.0383-.3364-.1394-.5462-.1474-.3061-.3944-.5531-.7005-.7006-.2098-.101-.408-.1286-.5462-.1393-.0892-.007-.1873-.0087-.2785-.00912-.3357-.70674-.7858-1.34767-1.3262-1.8991v-1.06858c.0001-.15482.0001-.33008-.0133-.48082-.0148-.16644-.0536-.42377-.2116-.67882-.1971-.31799-.5058-.55089-.8657-.65299-.2886-.08188-.5467-.04844-.7108-.01698-.1487.02849-.3171.07669-.466.11927l-1.782.50913c-.3231-2.16805-2.1926-3.83109-4.4506-3.83109z" fill="#801ed7"/></svg>

<svg width="24" height="24" viewBox="0 0 24 24" fill="none" xmlns="http://www.w3.org/2000/svg">
<path d="M11.5 2C9.01472 2 7 4.01472 7 6.5C7 6.7431 7.01937 6.98213 7.05672 7.2155C5.47191 8.29793 4.35475 10.0147 4.0708 12.0002H4C3.44772 12.0002 3 11.5525 3 11.0002C3 10.6313 3.19922 10.3078 3.50073 10.1334C3.97879 9.85681 4.14215 9.24508 3.86561 8.76702C3.58906 8.28896 2.97733 8.1256 2.49927 8.40214C1.60518 8.91934 1 9.8885 1 11.0002C1 12.657 2.34315 14.0002 4 14.0002H4.07094C4.28692 15.5083 4.98389 16.8621 5.99994 17.899L5.99993 20.2231C5.99989 20.3423 5.99983 20.4845 6.01007 20.6098C6.02194 20.755 6.05238 20.963 6.16343 21.181C6.30724 21.4632 6.53671 21.6927 6.81895 21.8365C7.0369 21.9476 7.24489 21.978 7.39011 21.9899C7.51542 22.0001 7.65768 22.0001 7.77679 22H9.72309C9.8422 22.0001 9.98446 22.0001 10.1098 21.9899C10.255 21.978 10.463 21.9476 10.6809 21.8365C10.9632 21.6927 11.1926 21.4632 11.3364 21.181C11.4475 20.963 11.4779 20.755 11.4898 20.6098C11.5 20.4845 11.5 20.3423 11.4999 20.2231L11.4999 20H12.5L12.4999 20.223C12.4999 20.3421 12.4998 20.4844 12.5101 20.6097C12.5219 20.7549 12.5524 20.9629 12.6634 21.1809C12.8073 21.4631 13.0367 21.6926 13.319 21.8364C13.5369 21.9474 13.7449 21.9779 13.8901 21.9897C14.0154 22 14.1577 21.9999 14.2768 21.9999H16.2233C16.3424 21.9999 16.4846 22 16.6099 21.9897C16.7551 21.9779 16.9631 21.9474 17.181 21.8364C17.4632 21.6926 17.6927 21.4631 17.8365 21.1809C17.9476 20.9629 17.978 20.7549 17.9899 20.6097C18.0001 20.4844 18.0001 20.3421 18 20.223L18 19.326C19.1062 18.8006 20.0517 17.9944 20.7452 16.9999L21.2232 16.9999C21.3423 16.9999 21.4845 17 21.6099 16.9897C21.7551 16.9779 21.9631 16.9474 22.181 16.8364C22.4633 16.6926 22.6927 16.4631 22.8365 16.1809C22.9476 15.9629 22.978 15.7549 22.9899 15.6097C23.0001 15.4844 23.0001 15.3421 23 15.223V11.7636C23.0001 11.6502 23.0001 11.5147 22.9908 11.3952C22.9801 11.257 22.9525 11.0588 22.8514 10.849C22.704 10.5429 22.457 10.2959 22.1509 10.1484C21.9411 10.0474 21.7429 10.0198 21.6047 10.0091C21.5155 10.0021 21.4174 10.0004 21.3262 9.99998C20.9905 9.29324 20.5404 8.65231 20 8.10088L20 7.0323C20.0001 6.87748 20.0001 6.70222 19.9867 6.55148C19.9719 6.38504 19.9331 6.12771 19.7751 5.87266C19.578 5.55467 19.2693 5.32177 18.9094 5.21967C18.6208 5.13779 18.3627 5.17123 18.1986 5.20269C18.0499 5.23118 17.8815 5.27938 17.7326 5.32196L15.9506 5.83109C15.6275 3.66304 13.758 2 11.5 2Z" fill="#801ED7"/>
</svg>
